src/icons/outline/users/logout.svg

<svg width="24" height="24" viewBox="0 0 24 24" fill="none" xmlns="http://www.w3.org/2000/svg">
<g clip-path="url(#clip0_92_760)">
<path d="M14.1846 2C15.3439 2.05003 16.2238 2.99051 16.1738 4.08105V8.02344C16.1736 8.42344 15.8435 8.74316 15.4238 8.74316C15.0044 8.74294 14.675 8.4233 14.6748 8.02344V4.04102C14.6948 3.71086 14.4544 3.45043 14.1445 3.44043H3.00098C2.72121 3.45043 2.48115 3.71071 2.50098 4.01074V19.9492C2.48113 20.2793 2.7215 20.5388 3.03125 20.5488H14.165C14.4349 20.5388 14.675 20.2786 14.665 19.9785V15.9668C14.6651 15.5683 15.0018 15.2497 15.4092 15.2471C15.8266 15.2495 16.1542 15.5682 16.1543 15.9668V19.9492C16.2041 21.0096 15.3343 21.9399 14.2051 22H2.99121C1.82184 21.94 0.95198 21.0095 1.00195 19.9189V4.04102C0.951986 2.98049 1.83178 2.04002 2.95117 2H14.1846ZM18.3027 8.18359C18.5926 7.90345 19.0617 7.90345 19.3516 8.18359L22.7695 11.4951C22.8394 11.5651 22.8897 11.6447 22.9297 11.7246H22.9395C22.9794 11.8146 23 11.9049 23 12.0049C23 12.1049 22.9794 12.1951 22.9395 12.2852C22.9095 12.3652 22.8502 12.4456 22.7803 12.5156L19.3623 15.8271C19.2124 15.9672 19.0219 16.0371 18.832 16.0371C18.6423 16.0371 18.4526 15.967 18.3027 15.8271C18.0129 15.547 18.0129 15.0868 18.3027 14.8066L20.4414 12.7256H7.89844C7.47866 12.7256 7.14844 12.4051 7.14844 12.0049C7.14853 11.6048 7.48871 11.2852 7.89844 11.2852H20.4414L18.3027 9.2041C18.0129 8.92399 18.013 8.46374 18.3027 8.18359Z" fill="#1D1B20"/>
</g>
<defs>
<clipPath id="clip0_92_760">
<rect width="24" height="24" fill="white"/>
</clipPath>
</defs>
</svg>

<svg xmlns="http://www.w3.org/2000/svg" width="24" height="24" fill="none" viewBox="0 0 24 24"><g clip-path="url(#a)"><path fill="currentColor" d="M14.185 2c1.159.05 2.039.99 1.989 2.081v3.942c0 .4-.33.72-.75.72s-.749-.32-.75-.72V4.041a.55.55 0 0 0-.53-.6H3.002c-.28.01-.52.27-.5.57v15.938c-.02.33.22.59.53.6h11.134c.27-.01.51-.27.5-.57v-4.012c0-.399.337-.717.744-.72.418.002.745.321.745.72v3.982c.05 1.06-.82 1.99-1.949 2.051H2.991c-1.17-.06-2.039-.99-1.99-2.081V4.04c-.048-1.059.831-2 1.951-2.04zm4.118 6.184a.76.76 0 0 1 1.049 0l3.418 3.311c.07.07.12.15.16.23h.01a.67.67 0 0 1 0 .56c-.03.08-.09.16-.16.23l-3.418 3.312a.775.775 0 0 1-1.06 0 .71.71 0 0 1 0-1.02l2.14-2.081H7.897c-.42 0-.75-.32-.75-.721s.34-.72.75-.72H20.44l-2.138-2.08a.71.71 0 0 1 0-1.021"/></g><defs><clipPath id="a"><path fill="currentColor" d="M0 0h24v24H0z"/></clipPath></defs></svg>
